X:204
T:score280
L:1/4
Q:1/4=40
M:4/4
I:linebreak $
K:C
"^Andante" z2 z (c'"_express." | d' b c') (g | a g a) (g/f/) |!<(! e/>e/ g/>!<)!!>(!g/ d'2 | %4
!>)! c' z z2 | (c' d'/b/ c' g) | (e'/c'/ d' g) (a/g/) | ^f/>!<(!f/ g/>!<)!g/!>(! c'2 |!>)! b z z2 | %9
